svgs/solid/line-height.svg

<svg xmlns="http://www.w3.org/2000/svg" viewBox="0 0 576 512"><!--! Font Awesome Pro 6.0.0-alpha3 by @fontawesome - https://fontawesome.com License - https://fontawesome.com/license (Commercial License) --><path d="M137.4 150.6C143.6 156.9 151.8 160 160 160s16.38-3.125 22.62-9.375c12.5-12.5 12.5-32.75 0-45.25l-64-64c-12.5-12.5-32.75-12.5-45.25 0l-64 64c-12.5 12.5-12.5 32.75 0 45.25s32.75 12.5 45.25 0L64 141.3v229.5l-9.375-9.375c-12.5-12.5-32.75-12.5-45.25 0s-12.5 32.75 0 45.25l64 64C79.63 476.9 87.81 480 96 480s16.38-3.125 22.62-9.375l64-64c12.5-12.5 12.5-32.75 0-45.25s-32.75-12.5-45.25 0L128 370.8v-229.5L137.4 150.6zM288 128h256c17.67 0 32-14.33 32-32s-14.33-32-32-32h-256C270.3 64 256 78.33 256 96S270.3 128 288 128zM544 224h-256C270.3 224 256 238.3 256 256s14.33 32 32 32h256c17.67 0 32-14.33 32-32S561.7 224 544 224zM544 384h-256c-17.67 0-32 14.33-32 32s14.33 32 32 32h256c17.67 0 32-14.33 32-32S561.7 384 544 384z"/></svg>

<svg xmlns="http://www.w3.org/2000/svg" viewBox="0 0 576 512"><!--! Font Awesome Pro 6.4.2 by @fontawesome - https://fontawesome.com License - https://fontawesome.com/license (Commercial License) Copyright 2023 Fonticons, Inc. --><path d="M118.6 41.4c-12.5-12.5-32.8-12.5-45.3 0l-64 64c-12.5 12.5-12.5 32.8 0 45.3s32.8 12.5 45.3 0l9.4-9.4V370.7l-9.4-9.4c-12.5-12.5-32.8-12.5-45.3 0s-12.5 32.8 0 45.3l64 64c12.5 12.5 32.8 12.5 45.3 0l64-64c12.5-12.5 12.5-32.8 0-45.3s-32.8-12.5-45.3 0l-9.4 9.4V141.3l9.4 9.4c12.5 12.5 32.8 12.5 45.3 0s12.5-32.8 0-45.3l-64-64zM288 64c-17.7 0-32 14.3-32 32s14.3 32 32 32H544c17.7 0 32-14.3 32-32s-14.3-32-32-32H288zm0 160c-17.7 0-32 14.3-32 32s14.3 32 32 32H544c17.7 0 32-14.3 32-32s-14.3-32-32-32H288zM256 416c0 17.7 14.3 32 32 32H544c17.7 0 32-14.3 32-32s-14.3-32-32-32H288c-17.7 0-32 14.3-32 32z"/></svg>
